X:1
T:Title
%%score { ( 1 3 5 ) | ( 2 4 ) }
L:1/8
M:6/8
K:D
V:1 treble nm="Grand Piano"
V:3 treble 
V:5 treble 
V:2 bass 
V:4 bass 
V:1
 z3 z2[Q:1/4=100] [FA] | [FA]2 [FA] [FA]2 [FA] | [GB]2 [FA] [A,DF]2 [DFA] | %3
 [DFA]2 [CEG] [B,G]F[G,CE] |[M:5/8] [DF]3 z2 |[M:1/8] [FA] |[M:3/4] [FA]2 [FA] [FA]2 [FA] | %7
 [GB]2 [FA] [A,DF]2 [DFA] | [DFA]2 [CEG]D- [DF][K:bass][G,CE] | [F,D]6 | z2 z2 cB | c3 F3 | B4 z2 | %13
 A3 F3 | [Fd]3 d c[D^GB] | [CAe]4- [CAe][EAc] | [CA]2 [CA] [D^GB]3 | [Gc]6 | z2 z2 cB | %19
 [DFA]3 [DF]3 | [DB]4 AG | F3 [CE]3 | z2 B, G2 G | F4- FB | A2 A [EGc]3 | %25
[M:5/8] [DFd]-[DFd]- [DFd]3 |] %26
V:2
 z3 z2 [D,D] | [D,D]2 [D,D] [D,D]2 [D,D] | [D,D]2 [D,D] D,2 D, | A,,2 A,, z A,A,, | %4
[M:5/8] z2 A, D2 |[M:1/8] [D,D] |[M:3/4] [D,D]2 [D,D] [D,D]2 [D,D] | [D,D]2 [D,D] D,2 D, | %8
 A,,2 .A,,2 A,A,, | D,6 | [B,,B,]4 ED | [F,^A,E]3 [F,A,E]3 | D4 E[G,D] | [D,F,D]3 [D,A,D]3 | %14
 [B,,B,]3 B, CE, | A,,4- A,,C, | E,2 E, E,3 | z2 z A,3 | [D,A,]4[K:treble] AG | D,3 D,3 | %20
 z2 z2 CB, | [D,A,D]3 [A,,G,]3 | [F,B,]2 z2 z2 | [F,^A,C]4- [F,A,C][G,B,E] | [A,CE]2 [A,CE] A,,3 | %25
[M:5/8] D,-D,- D,3 |] %26
V:3
 x6 | x6 | x6 | z3 .D3 |[M:5/8] F,2 z [FA]2 |[M:1/8] x |[M:3/4] x6 | x6 | z2 z [B,G] z2[K:bass] | %9
 x6 | [Fd]4 z2 | x6 | z .G,3 cB | x6 | z2 z .^G3 | x6 | x6 | E4 z2 | [Fd]4 z2 | x6 | x6 | x6 | %22
 D4 z2 | x6 | x6 |[M:5/8] x5 |] %26
V:4
 x6 | x6 | x6 | z3 .A,,3 |[M:5/8] D,-D,- D,3 |[M:1/8] x |[M:3/4] x6 | x6 | z2 z .A,,3 | x6 | %10
 z2 z B,,3 | x6 | .[G,B,]2 z A,,3 | x6 | z2 z .E,3 | x6 | x6 | A,,6 | z2 z D,3[K:treble] | x6 | %20
 G,6 | x6 | B,,3 [E,B,D]2 [E,B,D] | x6 | x6 |[M:5/8] x5 |] %26
V:5
 x6 | x6 | x6 | x6 |[M:5/8] x5 |[M:1/8] x |[M:3/4] x6 | x6 | x5[K:bass] x | x6 | z2 z B,3 | x6 | %12
 z2 z .G,3 | x6 | x6 | x6 | x6 | x6 | z2 z A,3 | x6 | x6 | x6 | x6 | x6 | x6 |[M:5/8] x5 |] %26

